optimized/24/outline/gender.svg

<svg viewBox="0 0 24 24" fill="none" xmlns="http://www.w3.org/2000/svg">
  <g clip-path="url(#clip0_2208_12322)">
    <path d="M15.75 2.5C15.75 2.08579 16.0858 1.75 16.5 1.75H19.5C19.9142 1.75 20.25 2.08579 20.25 2.5V5.5C20.25 5.91421 19.9142 6.25 19.5 6.25C19.0858 6.25 18.75 5.91421 18.75 5.5V4.31066L16.4185 6.64212C17.2561 7.79587 17.75 9.21525 17.75 10.75C17.75 14.3626 15.0133 17.3361 11.5 17.7103V18.5H13.5C13.9142 18.5 14.25 18.8358 14.25 19.25C14.25 19.6642 13.9142 20 13.5 20H11.5V21.5C11.5 21.9142 11.1642 22.25 10.75 22.25C10.3358 22.25 10 21.9142 10 21.5V20H8C7.58579 20 7.25 19.6642 7.25 19.25C7.25 18.8358 7.58579 18.5 8 18.5H10V17.7103C6.48668 17.3361 3.75 14.3626 3.75 10.75C3.75 6.88401 6.88401 3.75 10.75 3.75C12.5403 3.75 14.1737 4.42213 15.4115 5.52782L17.6893 3.25H16.5C16.0858 3.25 15.75 2.91421 15.75 2.5ZM10.75 16.25C13.7876 16.25 16.25 13.7876 16.25 10.75C16.25 7.71243 13.7876 5.25 10.75 5.25C7.71243 5.25 5.25 7.71243 5.25 10.75C5.25 13.7876 7.71243 16.25 10.75 16.25Z" fill="#333333"/>
  </g>
  <defs>
    <clipPath id="clip0_2208_12322">
      <rect width="24" height="24" fill="white"/>
    </clipPath>
  </defs>
</svg>

<svg xmlns="http://www.w3.org/2000/svg" width="24" height="24" fill="none">
  <g clip-path="url(#a)">
    <path fill="#333" d="M15.75 2.5a.75.75 0 0 1 .75-.75h3a.75.75 0 0 1 .75.75v3a.75.75 0 0 1-1.5 0V4.31l-2.331 2.332A7.001 7.001 0 0 1 11.5 17.71v.79h2a.75.75 0 0 1 0 1.5h-2v1.5a.75.75 0 0 1-1.5 0V20H8a.75.75 0 0 1 0-1.5h2v-.79a7.001 7.001 0 1 1 5.412-12.182l2.277-2.278H16.5a.75.75 0 0 1-.75-.75Zm-5 13.75a5.5 5.5 0 1 0 0-11 5.5 5.5 0 0 0 0 11Z"/>
  </g>
  <defs>
    <clipPath id="a">
      <path fill="#fff" d="M0 0h24v24H0z"/>
    </clipPath>
  </defs>
</svg>
